www/assets/icons/brush.svg

<svg width="24" height="24" viewBox="0 0 24 24" xmlns="http://www.w3.org/2000/svg" fill='currentColor'><path d="M7.49878 14.0013C5.83878 14.0013 4.49878 15.3413 4.49878 17.0013C4.49878 18.3113 3.33878 19.0013 2.49878 19.0013C3.41878 20.2213 4.98878 21.0013 6.49878 21.0013C8.70878 21.0013 10.4988 19.2113 10.4988 17.0013C10.4988 15.3413 9.15878 14.0013 7.49878 14.0013ZM21.2088 4.63128L19.8688 3.29128C19.4788 2.90128 18.8488 2.90128 18.4588 3.29128L9.49878 12.2513L12.2488 15.0013L21.2088 6.04128C21.5988 5.65128 21.5988 5.02128 21.2088 4.63128Z"/></svg>

<svg xmlns="http://www.w3.org/2000/svg" width="24" height="24" viewBox="0 0 24 24" fill='currentColor'><path d="M7.499 14.001c-1.66 0-3 1.34-3 3 0 1.31-1.16 2-2 2 .92 1.22 2.49 2 4 2 2.21 0 4-1.79 4-4 0-1.66-1.34-3-3-3m13.71-9.37-1.34-1.34a.996.996 0 0 0-1.41 0l-8.96 8.96 2.75 2.75 8.96-8.96a.996.996 0 0 0 0-1.41"/></svg>
